X: 12
T: SPEED THE PLOUGH
%R: hornpipe
B: Jean White "100 Popular Hornpipes, Reels, Jigs and Country Dances", Boston 1880 p.5
F: http://www.loc.gov/resource/sm1880.09124.0#seq-1
Z: 2014 John Chambers <jc:trillian.mit.edu>
M: C|
L: 1/8
K: A
% - - - - - - - - - - - - - - - - - - - - - - - - - - - - -
E2 |\
(3AAA A>c e>fe>c | e>ae>c e>fe>c |\
d>ed>B c>dc>A | F>Bd>B A>GF>E |
(3AAA A>c e>fe>c | e>ae>c e>fe>c |\
d>ed>B c>dc>A | F>AG>B A2 :|
|: (3efg |\
a>ga>b a>ec>e | a>ba>g f>ed>c |\
d>ef>d c>de>c | B>AB>c B>ef>g |
a>ga>b a>ec>e | a>ga>f e>cA>c |\
d>ec>d B>cA>B | F>AG>B A2 :|
% - - - - - - - - - - - - - - - - - - - - - - - - - - - - -

%%sep 1 1 500
%%sep 1 1 500
